X:1
T:Enningers Vals
C::John Enninger
R:Vals
Z:Patrik Mnsson, 2008-09-19
O:Hr, Skne
S:sbo Spelmn, Maga daj lite (CD 2004)
M:3/4
L:1/8
K:G
|: "G" G,B,D G,B,D | "C" G,CE G,CE | "D" DFA DFA | "G" AG BG DB, |
"G" G,B,D G,B,D | "C" G,CE G,CE | "D" DFA DFA |[1 "G" G4 D2 :|[2 "G" G3 A Bc|]
|: "G" d3 e dc | (cB) B2 B2 | "D" c3 d cB | (BA) A2 A2 | 
   "G" d3 e dc | (cB) B2 B2 | "D" cB cA FA |[1 "G" G3 A Bc :|[2 "G" G4 z2 |]
